X: 79
T:Darling Dan (#275)
M:4/4
L:1/8
S:Rice-Walsh manuscript
R:Reel
K:G
GBdB cBAG|FADA FADA|BGBd eceg|bgaf gedB|
GBdB cBAG|FADA FADA|BGBd eceg|bgaf dg g2||
bg g2affa|gddg fdcA|Bdce dfeg|fagb a2 ga|
bg g2 affa|gddg fdcA|Bdce dfeg|fagb gedB||

